X: 744
T: Hua li qiang
L: 1/8
M: 2/4
K: G
d/ e/d3 [I:setbarnb 1]| 
d/ e/ Bd2 | 
B A/ G/ A B | 
e2z2 | 
B G A A/ B/ | 
B< GA2 | 
B E E D | 
G2z2 |]

@@@ Tune index: 9618
